public/svgs/logo-en.svg

<svg viewBox="0 0 277 58" fill="none" xmlns="http://www.w3.org/2000/svg">
    <path d="M136.399 8.7421C134.603 6.97005 132.401 5.90683 130.078 5.50516C126.51 4.91448 120.332 4.98536 120.332 4.98536C123.469 3.92213 127.157 4.41831 127.157 4.41831C124.092 3.07155 117.985 4.01664 117.985 4.01664C120.811 3.26057 122.583 3.16606 125.217 3.47321C125.217 3.47321 122.176 2.12646 116.429 3.02429C115.878 3.09518 115.399 3.70949 115.088 3.92213C114.322 4.4183 113.723 4.63095 112.837 4.30017C112.406 4.13478 111.951 3.99301 111.425 3.80399C111.879 3.3787 112.382 3.30782 112.933 3.3787C113.34 3.42596 113.795 3.3787 114.178 3.30782C114.849 3.16606 115.184 2.71714 116.046 2.66989C116.046 2.66989 117.65 2.66989 119.135 2.57538C120.619 2.50449 121.841 1.74842 122.344 1.41764C120.165 1.39401 118.177 2.12646 115.902 2.10283C118.201 1.96107 119.494 1.27587 121.122 0C119.518 0.590682 118.56 1.34676 116.764 1.37038C115.759 1.39401 114.729 1.63028 113.771 1.8193C112.981 1.96107 112.358 2.81165 111.616 3.14243C110.826 3.47321 110.036 3.28419 109.509 2.74077C108.814 3.44959 108.791 4.27654 109.365 5.05624C109.581 4.77271 109.844 4.46556 110.179 4.08752C110.395 4.44193 110.539 4.60732 110.634 4.74909C111.305 4.39468 112.239 4.63095 112.694 5.22163C113.005 5.59967 112.694 5.76506 112.478 5.93045C111.592 6.56839 111.137 6.403 110.73 6.00133L110.419 6.71015L109.461 6.68653L111.209 8.43495L111.281 7.74975L112.095 7.72613C112.406 7.01731 113.196 6.94643 113.747 7.1827C114.322 7.4426 114.705 8.10416 115.136 8.55308C115.16 8.50583 115.184 8.36407 115.208 8.19867C115.471 7.37172 116.094 7.20633 116.74 7.77338L117.722 8.71847C118.297 9.2619 118.321 10.1834 117.77 10.7504L111.448 16.988L111.401 17.0353L106.659 21.6662C104.025 24.2652 99.7393 24.2652 97.1292 21.6662C94.4953 19.0672 94.4953 14.8379 97.1292 12.2626C98.4462 10.9631 100.17 10.3251 101.894 10.3251C103.618 10.3251 105.342 10.9631 106.659 12.2626L110.323 15.8775L113.867 12.3807L110.203 8.76573C105.606 4.22929 98.1349 4.22929 93.5614 8.76573C91.3345 10.9631 90.1133 13.8692 90.1133 16.988C90.1133 20.0832 91.3345 23.013 93.5614 25.2103C95.8601 27.4785 98.8772 28.6127 101.894 28.6127C104.911 28.6127 107.929 27.4785 110.227 25.2103L118.56 16.988L118.608 16.9408L123.325 12.2862C125.959 9.68719 130.245 9.68719 132.855 12.2862C135.489 14.8852 135.489 19.1145 132.855 21.6899C131.538 22.9894 129.814 23.6273 128.09 23.6273C126.366 23.6273 124.642 22.9894 123.325 21.6899L119.662 18.0749L116.118 21.5717L119.781 25.1867C124.379 29.7231 131.85 29.7231 136.423 25.1867C138.65 22.9894 139.871 20.0832 139.871 16.9644C139.847 13.8692 138.626 10.9394 136.399 8.7421Z"
          fill="#C11111"/>
    <path fill-rule="evenodd" clip-rule="evenodd"
          d="M25.8586 40.2124H0V34.7992H31.3437V40.9857V47.1722C31.3437 53.1515 26.4321 57.9986 20.3734 57.9986H0V43.3057H5.48515V52.5854H20.3734C23.4028 52.5854 25.8586 50.1619 25.8586 47.1722V40.2124Z"
          fill="#222222"/>
    <path fill-rule="evenodd" clip-rule="evenodd"
          d="M252.709 23.1997V5.41345H247.224V28.6129H267.989C272.966 28.6129 277 24.6313 277 19.7198H271.515C271.515 21.6417 269.936 23.1997 267.989 23.1997H252.709Z"
          fill="#222222"/>
    <path fill-rule="evenodd" clip-rule="evenodd"
          d="M143.789 45.6256C143.789 39.6463 148.701 34.7992 154.76 34.7992H173.566V47.1722C173.566 53.1515 168.654 57.9986 162.596 57.9986H143.789V45.6256ZM154.76 40.2124C151.73 40.2124 149.274 42.636 149.274 45.6256V52.5854H162.596C165.625 52.5854 168.081 50.1619 168.081 47.1722V40.2124H154.76Z"
          fill="#222222"/>
    <path fill-rule="evenodd" clip-rule="evenodd"
          d="M183.752 34.7992H178.267V57.9987H183.752V40.7189L183.883 40.7759C191.901 44.2703 198.483 50.3404 202.559 57.9978V57.9987H202.559C202.559 57.9991 202.56 57.9996 202.56 58L202.563 57.9987H208.044V34.7992H202.559V48.2191C198.168 42.8936 192.539 38.6309 186.099 35.8241L183.752 34.7992Z"
          fill="#222222"/>
    <path fill-rule="evenodd" clip-rule="evenodd"
          d="M77.5441 43.6921C78.3328 41.6574 80.3299 40.2124 82.669 40.2124H97.5573V43.6921H77.5441ZM77.1839 49.1054V57.9986H71.6987V45.6256C71.6987 39.6463 76.6103 34.7992 82.669 34.7992H103.042V57.9986H97.5573V49.1054H77.1839Z"
          fill="#222222"/>
    <path fill-rule="evenodd" clip-rule="evenodd"
          d="M218.591 14.3063C219.379 12.2716 221.377 10.8267 223.716 10.8267H237.037V14.3063H218.591ZM218.231 19.7195V28.6129H212.745V16.2399C212.745 10.2606 217.657 5.41345 223.716 5.41345H242.522V28.6129H237.037V19.7195H218.231Z"
          fill="#222222"/>
    <path fill-rule="evenodd" clip-rule="evenodd"
          d="M107.744 45.6256C107.744 39.6463 112.656 34.7992 118.714 34.7992H139.088V40.2124H118.714C115.685 40.2124 113.229 42.636 113.229 45.6256V52.5854H133.603V49.1055H130.077V43.6923H139.088V57.9986H107.744V45.6256Z"
          fill="#222222"/>
    <path fill-rule="evenodd" clip-rule="evenodd"
          d="M212.745 45.6256C212.745 39.6463 217.657 34.7992 223.716 34.7992H242.522V40.2124H223.716C221.376 40.2124 219.379 41.6574 218.591 43.6923H242.522V47.1722C242.522 53.1515 237.61 57.9986 231.552 57.9986H212.745V52.5854H231.552C233.891 52.5854 235.888 51.1404 236.677 49.1055H212.745V45.6256Z"
          fill="#222222"/>
    <path fill-rule="evenodd" clip-rule="evenodd" d="M5.48515 5.41345V28.6129H0V5.41345H5.48515Z" fill="#222222"/>
    <path fill-rule="evenodd" clip-rule="evenodd"
          d="M187.083 5.41345C182.214 5.41345 178.267 9.30848 178.267 14.1132H183.752C183.752 12.2981 185.243 10.8267 187.083 10.8267H191.98V28.6125H197.465V10.8267H208.044V5.41345H187.083Z"
          fill="#222222"/>
    <path fill-rule="evenodd" clip-rule="evenodd"
          d="M34.8699 5.41345C40.9287 5.41345 45.8402 10.2606 45.8402 16.2399V28.6129H40.3551V16.2399C40.3551 13.2502 37.8993 10.8267 34.8699 10.8267H15.6719V28.6129H10.1868V5.41345H34.8699ZM30.952 28.6126V13.9196H25.4668V28.6126H30.952Z"
          fill="#222222"/>
    <path fill-rule="evenodd" clip-rule="evenodd"
          d="M75.2249 5.41345C81.2836 5.41345 86.1952 10.2606 86.1952 16.2399V28.6129H80.7101V16.2399C80.7101 13.2502 78.2543 10.8267 75.2249 10.8267H56.0269V28.6129H50.5417V5.41345H75.2249ZM71.3069 28.6126V13.9196H65.8218V28.6126H71.3069Z"
          fill="#222222"/>
    <path fill-rule="evenodd" clip-rule="evenodd"
          d="M67.3891 34.7992H36.0454V57.9986H41.5306V40.2124H61.904C61.904 42.1343 60.3252 43.6923 58.3778 43.6923H44.6649V49.1055H51.368L60.4151 57.9987H68.1727L59.1063 49.0769C63.7424 48.7108 67.3891 44.8819 67.3891 40.2124V34.7992Z"
          fill="#222222"/>
    <path fill-rule="evenodd" clip-rule="evenodd"
          d="M173.566 5.41345H143.789V28.6129H149.274V10.8267H168.081C168.081 12.7486 166.502 14.3066 164.555 14.3066H152.409V19.7198H157.545L166.592 28.6124H174.349L165.284 19.6911C169.919 19.3248 173.566 15.496 173.566 10.8267V5.41345Z"
          fill="#222222"/>
</svg>

<svg xmlns="http://www.w3.org/2000/svg" fill="none" viewBox="0 0 277 58"><path fill="#c11111" d="M136.399 8.742a11.8 11.8 0 0 0-6.321-3.237c-3.568-.59-9.746-.52-9.746-.52 3.137-1.063 6.825-.567 6.825-.567-3.065-1.346-9.172-.401-9.172-.401 2.826-.756 4.598-.85 7.232-.544 0 0-3.041-1.347-8.788-.449-.551.071-1.03.685-1.341.898-.766.496-1.365.709-2.251.378-.431-.165-.886-.307-1.412-.496.454-.425.957-.496 1.508-.425.407.047.862 0 1.245-.071.671-.142 1.006-.59 1.868-.638 0 0 1.604 0 3.089-.095 1.484-.07 2.706-.827 3.209-1.157-2.179-.024-4.167.708-6.442.685 2.299-.142 3.592-.827 5.22-2.103-1.604.59-2.562 1.347-4.358 1.37-1.005.024-2.035.26-2.993.45-.79.141-1.413.992-2.155 1.322-.79.331-1.58.142-2.107-.401-.695.709-.718 1.536-.144 2.315.216-.283.479-.59.814-.968.216.354.36.52.455.661.671-.354 1.605-.118 2.06.473.311.378 0 .543-.216.708-.886.638-1.341.473-1.748.071l-.311.71-.958-.024 1.748 1.748.072-.685.814-.024c.311-.709 1.101-.78 1.652-.543.575.26.958.921 1.389 1.37.024-.047.048-.189.072-.354.263-.827.886-.993 1.532-.426l.982.945c.575.544.599 1.465.048 2.032l-6.322 6.238-.047.047-4.742 4.631c-2.634 2.6-6.92 2.6-9.53 0-2.634-2.599-2.634-6.828 0-9.403a6.75 6.75 0 0 1 4.765-1.938c1.724 0 3.448.638 4.765 1.938l3.664 3.614 3.544-3.496-3.664-3.615c-4.597-4.537-12.068-4.537-16.642 0-2.227 2.197-3.448 5.103-3.448 8.222 0 3.095 1.222 6.025 3.448 8.222a11.83 11.83 0 0 0 8.333 3.403c3.017 0 6.035-1.134 8.333-3.403l8.333-8.222.048-.047 4.717-4.655c2.634-2.599 6.92-2.599 9.53 0 2.634 2.6 2.634 6.829 0 9.404a6.75 6.75 0 0 1-4.765 1.937 6.75 6.75 0 0 1-4.765-1.937l-3.663-3.615-3.544 3.497 3.663 3.615c4.598 4.536 12.069 4.536 16.642 0 2.227-2.198 3.448-5.104 3.448-8.223a11.6 11.6 0 0 0-3.472-8.222"/><path fill="#222" fill-rule="evenodd" d="M25.859 40.212H0V34.8h31.344v12.373c0 5.98-4.912 10.827-10.97 10.827H0V43.306h5.485v9.28h14.888c3.03 0 5.486-2.424 5.486-5.414zM252.709 23.2V5.413h-5.485v23.2h20.765c4.977 0 9.011-3.982 9.011-8.893h-5.485c0 1.922-1.579 3.48-3.526 3.48zM143.789 45.626c0-5.98 4.912-10.827 10.971-10.827h18.806v12.373c0 5.98-4.912 10.827-10.97 10.827h-18.807zm10.971-5.414c-3.03 0-5.486 2.424-5.486 5.414v6.96h13.322c3.029 0 5.485-2.424 5.485-5.414v-6.96zM183.752 34.8h-5.485v23.199h5.485v-17.28l.131.057c8.018 3.494 14.6 9.564 18.676 17.222l.001.002.003-.001h5.481v-23.2h-5.485v13.42a44.2 44.2 0 0 0-16.46-12.395zM77.544 43.692a5.485 5.485 0 0 1 5.125-3.48h14.888v3.48zm-.36 5.413V58h-5.485V45.626c0-5.98 4.911-10.827 10.97-10.827h20.373V58h-5.485v-8.894zM218.591 14.306a5.485 5.485 0 0 1 5.125-3.48h13.321v3.48zm-.36 5.414v8.893h-5.486V16.24c0-5.98 4.912-10.827 10.971-10.827h18.806v23.2h-5.485V19.72zM107.744 45.626c0-5.98 4.912-10.827 10.97-10.827h20.374v5.413h-20.374c-3.029 0-5.485 2.424-5.485 5.414v6.96h20.374v-3.48h-3.526v-5.414h9.011V58h-31.344zM212.745 45.626c0-5.98 4.912-10.827 10.971-10.827h18.806v5.413h-18.806a5.48 5.48 0 0 0-5.125 3.48h23.931v3.48c0 5.98-4.912 10.827-10.97 10.827h-18.807v-5.414h18.807a5.49 5.49 0 0 0 5.125-3.48h-23.932zM5.485 5.413v23.2H0v-23.2zM187.083 5.413c-4.869 0-8.816 3.895-8.816 8.7h5.485c0-1.815 1.491-3.286 3.331-3.286h4.897v17.786h5.485V10.827h10.579V5.413zM34.87 5.413c6.059 0 10.97 4.848 10.97 10.827v12.373h-5.485V16.24c0-2.99-2.456-5.413-5.485-5.413H15.672v17.786h-5.485v-23.2zm-3.918 23.2V13.92h-5.485v14.693zM75.225 5.413c6.059 0 10.97 4.848 10.97 10.827v12.373H80.71V16.24c0-2.99-2.456-5.413-5.485-5.413H56.027v17.786h-5.485v-23.2zm-3.918 23.2V13.92h-5.485v14.693zM67.39 34.8H36.044v23.199h5.486V40.212h20.373c0 1.922-1.579 3.48-3.526 3.48H44.665v5.413h6.703L60.415 58h7.758l-9.067-8.922c4.636-.366 8.283-4.195 8.283-8.865zM173.566 5.413h-29.777v23.2h5.485V10.827h18.807c0 1.922-1.579 3.48-3.526 3.48h-12.146v5.413h5.136l9.047 8.892h7.757l-9.065-8.92c4.635-.367 8.282-4.196 8.282-8.865z" clip-rule="evenodd"/></svg>
